X:14
T:The Roast Beef
S:Ashworth's Instructor, p. 33
M:6/8
%%MIDI program 72
%%MIDI transpose 8
L:1/8
K:D
A|d>ed cde|fdf edc|d>ed cBA|BGB A2::
A|BGB dcB|AFD B3|Agf edc|d3 AGF|GAB cAc|d3 z2:|]

